X:16
T:Gyertek lányok rozmaringot szedjetek
M:4/4
L:1/4
K:D
BAGF | E<D EF | GAFE | F<D D2 |
dedc | B<A Bc | dfeB | c<A A2 |
d>d B e | d2 A2 | ddBG | FEA2 |
BAGF | E<D EF | GAFE | F<D D2 |

